svg/invoice_check.svg

<svg xmlns="http://www.w3.org/2000/svg" viewBox="0 0 24 24"><path d="M19 13c.7 0 1.37.12 2 .34V3H3v19l3-2 3 2 3-2 1.3.86c-.2-.58-.3-1.21-.3-1.86 0-3.31 2.69-6 6-6m-3.5 6 2.75 3L23 17.23l-1.16-1.41-3.59 3.59-1.59-1.59z"/></svg>

<svg xmlns="http://www.w3.org/2000/svg" id="mdi-invoice-check" viewBox="0 0 24 24"><path d="M19 13C19.7 13 20.37 13.12 21 13.34V3H3V22L6 20L9 22L12 20L13.3 20.86C13.1 20.28 13 19.65 13 19C13 15.69 15.69 13 19 13M15.5 19L18.25 22L23 17.23L21.84 15.82L18.25 19.41L16.66 17.82L15.5 19Z" /></svg>
